Obsidian-SemiLight/actions/24s/document-preview-archive.svg

<svg viewBox="0 0 24 24" xmlns="http://www.w3.org/2000/svg"><path d="m5 4v16h1 7v-1h-7v-14h12v9h1v-10h-1-12zm9 8c-1.662003 0-3 1.337997-3 3s1.337997 3 3 3c.649392 0 1.246354-.208586 1.736328-.556641l2.556641 2.556641.707031-.707031-2.556641-2.556641c.348055-.489974.556641-1.086936.556641-1.736328 0-1.662003-1.337997-3-3-3zm0 1c1.108003 0 2 .891997 2 2s-.891997 2-2 2-2-.891997-2-2 .891997-2 2-2z" fill="#4d4d4d"/></svg>

<svg xmlns="http://www.w3.org/2000/svg" viewBox="0 0 24 24">
  <defs id="defs3051">
    <style type="text/css" id="current-color-scheme">
      .ColorScheme-Text {
        color:#4d4d4d;
      }
      </style>
  </defs>
 <path 
    style="fill:currentColor;fill-opacity:1;stroke:none" 
	d="M 5 4 L 5 20 L 6 20 L 13 20 L 13 19 L 6 19 L 6 5 L 18 5 L 18 14 L 19 14 L 19 4 L 18 4 L 6 4 L 5 4 z M 14 12 C 12.337997 12 11 13.337997 11 15 C 11 16.662003 12.337997 18 14 18 C 14.649392 18 15.246354 17.791414 15.736328 17.443359 L 18.292969 20 L 19 19.292969 L 16.443359 16.736328 C 16.791414 16.246354 17 15.649392 17 15 C 17 13.337997 15.662003 12 14 12 z M 14 13 C 15.108003 13 16 13.891997 16 15 C 16 16.108003 15.108003 17 14 17 C 12.891997 17 12 16.108003 12 15 C 12 13.891997 12.891997 13 14 13 z "
    class="ColorScheme-Text"
    />
</svg>
